assets/images/logo.svg

<?xml version="1.0" encoding="UTF-8"?>
<svg width="46px" height="46px" viewBox="0 0 46 46" version="1.1" xmlns="http://www.w3.org/2000/svg" xmlns:xlink="http://www.w3.org/1999/xlink">
    <!-- Generator: Sketch 49.1 (51147) - http://www.bohemiancoding.com/sketch -->
    <title>logo</title>
    <desc>Created with Sketch.</desc>
    <defs></defs>
    <g id="Desktop" stroke="none" stroke-width="1" fill="none" fill-rule="evenodd">
        <g id="01_Main_page" transform="translate(-36.000000, -15.000000)" fill-rule="nonzero">
            <g id="header" transform="translate(0.000000, -1.000000)">
                <g id="Group-2" transform="translate(36.000000, 16.000000)">
                    <g id="logo">
                        <path d="M13.0388956,15.0826012 C13.4803217,15.3088703 16.045527,17.6051585 20.2756956,16.2472212 C25.5210702,14.5633901 31.1365829,6.30888425 38.4708487,7.79121084 C41.9912962,8.51148615 44.5436207,11.7786549 45.1729007,15.3713882 C48.0611345,31.874336 24.7279015,44.1060513 19.269741,45.376617 C19.269741,45.376617 27.6132017,39.8549865 33.174042,33.3739492 C39.2673499,26.2720347 42.4152168,18.0695395 36.9878601,16.0225171 C32.3408694,14.2736886 20.1629279,28.4221316 13.0388956,15.0826012 Z" id="Shape" fill="#E4953D"></path>
                        <path d="M40.4233846,3.51343763 C40.4233846,5.45413953 38.8265695,7.02545455 36.8566154,7.02545455 C34.8866613,7.02545455 33.2898462,5.45413953 33.2898462,3.51343763 C33.2898462,1.57273573 34.8880331,0 36.8566154,0 C38.8251976,0 40.4233846,1.57273573 40.4233846,3.51343763 Z" id="Shape" fill="#E4953D"></path>
                        <path d="M24.3222719,11.544003 C24.117055,11.7948272 22.2265421,13.849577 18.9129208,12.5905358 C15.065365,11.1341391 10.7490999,4.90392606 5.30267413,6.01026893 C2.68580811,6.54183211 0.78329958,8.9778032 0.315373427,11.6514651 C-1.83356643,23.9335997 15.5310411,33.036439 19.5927575,33.9799997 C19.5927575,33.9799997 13.3835681,29.8715493 9.24557538,25.0485859 C4.71006545,19.7617651 2.37043469,13.6581522 6.4086814,12.1354902 C9.85725315,10.8361135 18.6809103,21.4832946 24.3222719,11.544003 Z" id="Shape" fill="#927649"></path>
                        <path d="M3.56676923,2.63454545 C3.56676923,4.08927273 4.76475048,5.26909091 6.24184615,5.26909091 C7.71894183,5.26909091 8.91692308,4.08927273 8.91692308,2.63454545 C8.91692308,1.17981818 7.72032359,0 6.24184615,0 C4.76336872,0 3.56676923,1.17409091 3.56676923,2.63454545 Z" id="Shape" fill="#927649"></path>
                    </g>
                </g>
            </g>
        </g>
    </g>
</svg>

<svg width="46" height="46" viewBox="0 0 46 46" xmlns="http://www.w3.org/2000/svg"><title>logo</title><g fill="none"><path d="M13.039 15.083c.441.226 3.007 2.522 7.237 1.164 5.245-1.684 10.86-9.938 18.195-8.456 3.52.72 6.073 3.988 6.702 7.58C48.06 31.874 24.728 44.106 19.27 45.377c0 0 8.343-5.522 13.904-12.003 6.093-7.102 9.241-15.304 3.814-17.351-4.647-1.75-16.825 12.4-23.95-.94zm27.384-11.57c0 1.941-1.596 3.512-3.566 3.512-1.97 0-3.567-1.57-3.567-3.512C33.29 1.573 34.888 0 36.857 0c1.968 0 3.566 1.573 3.566 3.513z" fill="#E4953D"/><path d="M24.322 11.544c-.205.25-2.095 2.306-5.41 1.047-3.847-1.457-8.163-7.687-13.61-6.58C2.687 6.54.784 8.977.316 11.65c-2.15 12.284 15.215 21.386 19.277 22.33 0 0-6.21-4.108-10.347-8.931-4.536-5.287-6.876-11.39-2.837-12.914 3.448-1.299 12.272 9.348 17.913-.591zM3.567 2.635c0 1.454 1.198 2.634 2.675 2.634 1.477 0 2.675-1.18 2.675-2.634C8.917 1.18 7.72 0 6.242 0 4.763 0 3.567 1.174 3.567 2.635z" fill="#927649"/></g></svg>
